packages/core/src/svgs/tokens/mono/TOSHI.svg

<svg width="24" height="24" viewBox="0 0 24 24" fill="none" xmlns="http://www.w3.org/2000/svg">
<path d="M2 3.84204V5.95784L4.04738 7.98416L8.51055 9.19472V10.1421L10.3053 14.5841V16.0527L11.9842 17.9105V17.9473L12 17.9316L12.0158 17.9473V17.9105L13.6948 16.0527V14.579L15.4842 10.1368V9.18944L19.958 7.97889L22 5.95784V3.84204L21.4579 5.31046L19.9527 6.21573L15.4895 6.98942L12.0158 6.22099V6.21573H11.9842V6.22099L8.51055 6.98942L4.04738 6.21573L2.54211 5.31046L2 3.84204Z" fill="white"/>
<path d="M6.73706 15.3896L7.82126 10.5159L9.52654 14.6528L9.1318 16.3369L11.4739 18.758V20.158L6.73706 15.3896Z" fill="white"/>
<path d="M17.2634 15.3896L16.1791 10.5159L14.474 14.6528L14.8687 16.3369L12.5266 18.758V20.158L17.2634 15.3896Z" fill="white"/>
</svg>

<svg xmlns="http://www.w3.org/2000/svg" width="24" height="24" fill="none" viewBox="0 0 24 24">
    <path fill="#fff" d="M2 3.842v2.116l2.047 2.026 4.464 1.21v.948l1.794 4.442v1.469l1.68 1.857v.037l.015-.015.016.015v-.037l1.679-1.857v-1.474l1.79-4.442v-.948l4.473-1.21L22 5.958V3.842l-.542 1.468-1.505.906-4.463.773-3.474-.768v-.005h-.032v.005l-3.473.768-4.464-.773-1.505-.906z"/>
    <path fill="#fff" d="m6.737 15.39 1.084-4.874 1.706 4.137-.395 1.684 2.342 2.421v1.4zm10.526 0-1.084-4.874-1.705 4.137.395 1.684-2.342 2.421v1.4z"/>
</svg>
